svgs/sharp-regular/keyboard-brightness.svg

<svg xmlns="http://www.w3.org/2000/svg" viewBox="0 0 640 512"><!--! Font Awesome Pro 6.6.0 by @fontawesome - https://fontawesome.com License - https://fontawesome.com/license (Commercial License) Copyright 2024 Fonticons, Inc. --><path d="M129 167l-17-17L78.1 184l17 17 80 80 17 17L225.9 264l-17-17-80-80zm167 33l0 24 48 0 0-24 0-112 0-24-48 0 0 24 0 112zm135 47l-17 17L448 297.9l17-17 80-80 17-17L528 150.1l-17 17-80 80zM0 368l0 48 24 0 80 0 24 0 0-48-24 0-80 0L0 368zm216 0l-24 0 0 48 24 0 208 0 24 0 0-48-24 0-208 0zm320 0l-24 0 0 48 24 0 80 0 24 0 0-48-24 0-80 0z"/></svg>

<svg xmlns="http://www.w3.org/2000/svg" viewBox="0 0 640 512"><!--! Font Awesome Pro 6.4.2 by @fontawesome - https://fontawesome.com License - https://fontawesome.com/license (Commercial License) Copyright 2023 Fonticons, Inc. --><path d="M129 167l-17-17L78.1 184l17 17 80 80 17 17L225.9 264l-17-17-80-80zm167 33v24h48V200 88 64H296V88 200zm135 47l-17 17L448 297.9l17-17 80-80 17-17L528 150.1l-17 17-80 80zM0 368v48H24h80 24V368H104 24 0zm216 0H192v48h24H424h24V368H424 216zm320 0H512v48h24 80 24V368H616 536z"/></svg>
